icons/signal-wifi-off-fill.svg

<svg xmlns="http://www.w3.org/2000/svg" width="24" height="24" fill="none"><g clip-path="url(#a)"><g><path fill="#121212" d="M2.808 1.39301L20.485 19.071L19.071 20.485L15.388 16.802L12 21L0.689999 6.99701C1.604 6.25701 2.592 5.60601 3.64 5.05501L1.394 2.80801L2.809 1.39301H2.808ZM12 3.00001C16.284 3.00001 20.22 4.497 23.31 6.99601L17.903 13.689L7.724 3.51101C9.094 3.17701 10.527 3.00001 12 3.00001Z"/></g></g><defs><clipPath id="a"><rect width="24" height="24" fill="white"/></clipPath></defs></svg>

<svg width="24" height="24" fill="none" xmlns="http://www.w3.org/2000/svg"><g clip-path="url(#a)"><path d="m2.808 1.393 17.677 17.678-1.414 1.414-3.683-3.683L12 21 .69 6.997a18 18 0 0 1 2.95-1.942L1.394 2.808l1.415-1.415h-.001ZM12 3c4.284 0 8.22 1.497 11.31 3.996l-5.407 6.693L7.724 3.511A18.04 18.04 0 0 1 12 3Z" /></g><defs><clipPath id="a"><path fill="#fff" d="M0 0h24v24H0z"/></clipPath></defs></svg>
